!!!COM: Music21
!!!OTL: waltz_Project--The
!!!OMV: waltz_Project--The
**kern
*clefG2
*k[f#c#g#d#]
*E:
*M3/4
=1
8ff#L
8eeJ
=||
8dd#L
8bJ
12bL
12b
12bJ
8eeL
8ff#J
=
8dd#L
8bJ
12bL
12b
12bJ
8eeL
8cc#J
=
8dd#L
8bJ
12bL
12b
12bJ
8eeL
8ff#J
=
8ddnL
8eeJ
8ff#L
8dd#XJ
8aL
8cc#J
=
8dd#L
8bJ
12bL
12b
12bJ
8eeL
8ff#J
!!linebreak:original
=
8dd#L
8bJ
12bL
12b
12bJ
8eeL
8cc#J
=
8dd#L
8bJ
12bL
12b
12bJ
8eeL
8ff#J
=
8ddnL
8eeJ
8ff#L
8dd#XJ
8ff#L
8eeJ
=||
8dd#L
8bJ
12bL
12b
12bJ
8eeL
8ff#J
=
8dd#L
8bJ
12bL
12b
12bJ
8eeL
8cc#J
!!linebreak:original
=
8dd#L
8bJ
12bL
12b
12bJ
8eeL
8ff#J
=
8ddnL
8eeJ
8ff#L
8dd#XJ
8aL
8cc#J
=
8dd#L
8bJ
12bL
12b
12bJ
8eeL
8ff#J
=
8dd#L
8bJ
12bL
12b
12bJ
8eeL
8cc#J
=
8dd#L
8bJ
12bL
12b
12bJ
8eeL
8ff#J
!!linebreak:original
=
8ddnL
8cc#J
8bL
8anJ
8gnL
8f#J
=||
2.ryy
=||
4g#
8g#L
8bJ
8f#L
8bJ
=
8eL
8eJ
8eL
8g#J
8f#L
8g#J
=
8aL
8d#J
8aL
8bJ
8aL
8g#J
=
8f#L
8f#J
8f#L
8bJ
8d#XL
8f#J
=
4g#
8g#L
8bJ
8f#L
8bJ
!!linebreak:original
=
8eL
8eJ
8eL
8g#J
8f#L
8g#J
=
8aL
8d#J
8aL
8bJ
8aL
8g#J
=
8f#L
8aJ
8dd#L
8g#J
8aL
8aJ
=||
4g#
8g#L
8bJ
8f#L
8bJ
=
8eL
8eJ
8eL
8g#J
8f#L
8g#J
=
8aL
8d#J
8aL
8bJ
8aL
8g#J
!!linebreak:original
=
8f#L
8f#J
8f#L
8bJ
8d#XL
8f#J
=
4g#
8g#L
8bJ
8f#L
8bJ
=
8eL
8eJ
8eL
8g#J
8f#L
8g#J
=
8aL
8d#J
8aL
8bJ
8aL
8g#J
=
8f#L
8aJ
8dd#L
8bJ
12dd#XL
12dd#X
12dd#XJ
=||
2.ryy
!!linebreak:original
=||
8eeL
8bJ
12bL
12b
12bJ
8eeL
8bJ
=
8dd#L
8bJ
12bL
12b
12bJ
8dd#L
8bJ
=
8ddnL
8aJ
12aL
12a
12aJ
8dd#XL
8eeJ
=
8ff#L
8bJ
12bL
12b
12bJ
8ggnL
8ff#J
=
8eeL
8bJ
12bL
12b
12bJ
8eeL
8bJ
!!linebreak:original
=
8dd#L
8bJ
12bL
12b
12bJ
8dd#L
8bJ
=
8ddnL
8aJ
12aL
12a
12aJ
8dd#XL
8eeJ
=
8ff#L
8bJ
12bL
12b
12bJ
8ff#L
8ggnJ
=||
8ff#L
8bJ
12bL
12b
12bJ
8ff#L
8eeJ
=||
*-
